docs/img/rates/star-2.svg

<svg width="625" height="676" fill="none" xmlns="http://www.w3.org/2000/svg"><path d="M314.039 201.453c5.304-13.249 23.384-14.92 31.026-2.867l47.831 75.435a22.507 22.507 0 0010.158 8.64l68.752 29.391c13.553 5.794 14.311 24.722 1.264 31.581l-62.701 32.964a22.49 22.49 0 00-10.186 10.996l-36.641 84.849c-5.807 13.448-24.581 14.236-31.494 1.321l-41.658-77.818a22.5 22.5 0 00-12.621-10.692l-70.175-23.76c-14.359-4.861-16.165-24.436-2.939-31.844l67.906-38.033a22.493 22.493 0 009.894-11.268l31.584-78.895z" stroke="#fff" stroke-opacity=".3" stroke-width="5"/><path d="M325.801 247.37c2.273-5.678 10.022-6.394 13.297-1.229l33.554 52.919a12.503 12.503 0 005.643 4.8l49.501 21.162c5.809 2.483 6.133 10.595.542 13.534l-45.547 23.945a12.504 12.504 0 00-5.659 6.109l-25.791 59.725c-2.489 5.764-10.535 6.101-13.498.567L308.33 373.77a12.499 12.499 0 00-7.012-5.941l-51.166-17.324c-6.154-2.083-6.928-10.472-1.26-13.647l49.104-27.502a12.493 12.493 0 005.496-6.26l22.309-55.726z" stroke="#fff" stroke-opacity=".6" stroke-width="5"/><path d="M311.03 157.548c5.304-13.249 23.384-14.92 31.026-2.867l66.008 104.102a22.507 22.507 0 0010.158 8.64l97.276 41.585c13.553 5.794 14.31 24.722 1.264 31.581l-89.473 47.038a22.497 22.497 0 00-10.187 10.996l-50.729 117.475c-5.807 13.448-24.581 14.236-31.494 1.322l-58.036-108.412a22.495 22.495 0 00-12.621-10.693l-100.497-34.026c-14.359-4.862-16.166-24.437-2.94-31.844l96.478-54.035a22.502 22.502 0 009.894-11.268l43.873-109.594z" stroke="#fff" stroke-opacity=".2" stroke-width="5"/></svg>

<svg width="625" height="676" viewBox="0 0 625 676" fill="none" xmlns="http://www.w3.org/2000/svg">
<path d="M314.039 201.453C319.343 188.204 337.423 186.533 345.065 198.586L392.896 274.021C395.331 277.861 398.873 280.873 403.054 282.661L471.806 312.052C485.359 317.846 486.117 336.774 473.07 343.633L410.369 376.597C405.816 378.99 402.221 382.871 400.183 387.593L363.542 472.442C357.735 485.89 338.961 486.678 332.048 473.763L290.39 395.945C287.693 390.908 283.181 387.085 277.769 385.253L207.594 361.493C193.235 356.632 191.429 337.057 204.655 329.649L272.561 291.616C277.051 289.102 280.543 285.125 282.455 280.348L314.039 201.453Z" stroke="white" stroke-opacity="0.3" stroke-width="5"/>
<path d="M325.801 247.37C328.074 241.692 335.823 240.976 339.098 246.141L372.652 299.06C374.005 301.193 375.972 302.867 378.295 303.86L427.796 325.022C433.605 327.505 433.929 335.617 428.338 338.556L382.791 362.501C380.262 363.831 378.265 365.987 377.132 368.61L351.341 428.335C348.852 434.099 340.806 434.436 337.843 428.902L308.33 373.77C306.832 370.971 304.325 368.847 301.318 367.829L250.152 350.505C243.998 348.422 243.224 340.033 248.892 336.858L297.996 309.356C300.49 307.96 302.43 305.75 303.492 303.096L325.801 247.37Z" stroke="white" stroke-opacity="0.6" stroke-width="5"/>
<path d="M311.03 157.548C316.334 144.299 334.414 142.628 342.056 154.681L408.064 258.783C410.499 262.623 414.041 265.635 418.222 267.423L515.498 309.008C529.051 314.802 529.808 333.73 516.762 340.589L427.289 387.627C422.736 390.02 419.141 393.901 417.102 398.623L366.373 516.098C360.566 529.546 341.792 530.334 334.879 517.42L276.843 409.008C274.147 403.97 269.634 400.147 264.222 398.315L163.725 364.289C149.366 359.427 147.559 339.852 160.785 332.445L257.263 278.41C261.752 275.896 265.244 271.919 267.157 267.142L311.03 157.548Z" stroke="white" stroke-opacity="0.2" stroke-width="5"/>
</svg>
